Hatter-kde/actions/16/kr_comparedirs.svg

<svg xmlns="http://www.w3.org/2000/svg" viewBox="0 0 16 16">
  <defs id="defs3051">
    <style type="text/css" id="current-color-scheme">
      .ColorScheme-Text {
        color:#363636;
      }
      </style>
  </defs>
 <path style="fill:currentColor;fill-opacity:1;stroke:none" 
     d="M 4.5 2 A 1.500015 1.500015 0 0 0 3 3.5 A 1.500015 1.500015 0 0 0 4 4.9121094 L 4 11 C 4 12.105 4.895 13 6 13 L 7 13 L 7 14 L 9 12.5 L 7 11 L 7 12 L 6 12 C 5.448 12 5 11.552 5 11 L 5 4.9121094 A 1.500015 1.500015 0 0 0 6 3.5 A 1.500015 1.500015 0 0 0 4.5 2 z M 9 2 L 7 3.5 L 9 5 L 9 4 L 10 4 C 10.552 4 11 4.448 11 5 L 11 11.087891 A 1.500015 1.500015 0 0 0 10 12.5 A 1.500015 1.500015 0 0 0 11.5 14 A 1.500015 1.500015 0 0 0 13 12.5 A 1.500015 1.500015 0 0 0 12 11.087891 L 12 5 C 12 3.895 11.105 3 10 3 L 9 3 L 9 2 z M 4.5 3 A 0.5 0.5 0 0 1 5 3.5 A 0.5 0.5 0 0 1 4.5 4 A 0.5 0.5 0 0 1 4 3.5 A 0.5 0.5 0 0 1 4.5 3 z M 11.5 12 A 0.5 0.5 0 0 1 12 12.5 A 0.5 0.5 0 0 1 11.5 13 A 0.5 0.5 0 0 1 11 12.5 A 0.5 0.5 0 0 1 11.5 12 z "
     class="ColorScheme-Text"
     />
</svg>

<?xml version="1.0" encoding="UTF-8"?>
<svg viewBox="0 0 16 16" xmlns="http://www.w3.org/2000/svg">
 <defs id="defs3051">
  <style id="current-color-scheme" type="text/css">.ColorScheme-Text {
        color:#363636;
      }</style>
 </defs>
 <path class="ColorScheme-Text" d="m4.5 2a1.5 1.5 0 0 0-1.5 1.5 1.5 1.5 0 0 0 1 1.4121v6.0879c0 1.105 0.895 2 2 2h1v1l2-1.5-2-1.5v1h-1c-0.552 0-1-0.448-1-1v-6.0879a1.5 1.5 0 0 0 1-1.4121 1.5 1.5 0 0 0-1.5-1.5zm4.5 0-2 1.5 2 1.5v-1h1c0.552 0 1 0.448 1 1v6.0879a1.5 1.5 0 0 0-1 1.4121 1.5 1.5 0 0 0 1.5 1.5 1.5 1.5 0 0 0 1.5-1.5 1.5 1.5 0 0 0-1-1.4121v-6.0879c0-1.105-0.895-2-2-2h-1v-1zm-4.5 1a0.5 0.5 0 0 1 0.5 0.5 0.5 0.5 0 0 1-0.5 0.5 0.5 0.5 0 0 1-0.5-0.5 0.5 0.5 0 0 1 0.5-0.5zm7 9a0.5 0.5 0 0 1 0.5 0.5 0.5 0.5 0 0 1-0.5 0.5 0.5 0.5 0 0 1-0.5-0.5 0.5 0.5 0 0 1 0.5-0.5z" fill="currentColor"/>
</svg>
